svgs/sharp-light/up-to-line.svg

<svg xmlns="http://www.w3.org/2000/svg" viewBox="0 0 384 512"><!--! Font Awesome Pro 6.6.0 by @fontawesome - https://fontawesome.com License - https://fontawesome.com/license (Commercial License) Copyright 2024 Fonticons, Inc. --><path d="M16 64L0 64 0 32l16 0 352 0 16 0 0 32-16 0L16 64zM240 336l0-32 32 0 48 0 0-17.7L192 171.1 64 286.3 64 304l48 0 32 0 0 32 0 112 96 0 0-112zm112 0l-32 0-16 0-32 0 0 32 0 80 0 32-32 0-96 0-32 0 0-32 0-80 0-32-32 0-16 0-32 0 0-32 0-32L192 128 352 272l0 32 0 32z"/></svg>

<svg xmlns="http://www.w3.org/2000/svg" viewBox="0 0 384 512"><!--! Font Awesome Pro 6.4.2 by @fontawesome - https://fontawesome.com License - https://fontawesome.com/license (Commercial License) Copyright 2023 Fonticons, Inc. --><path d="M16 64H0V32H16 368h16V64H368 16zM240 336V304h32 48V286.3L192 171.1 64 286.3V304h48 32v32V448h96V336zm112 0H320 304 272v32 80 32H240 144 112V448 368 336H80 64 32V304 272L192 128 352 272v32 32z"/></svg>
